X: 30
T: No_128_Song_of_a_Grandparent.krn
N: Derived from No_128_Song_of_a_Grandparent.krn
%%abc-version 2.0
%%abcx-abcm2ps-target-version 5.9.1 (29 Sep 2008)
%%abc-creator hum2abc beta
%%abcx-conversion-date 2019/03/15 08:36:13
%%humdrum-veritas 3383286722
%%humdrum-veritas-data 1190312906
%%linebreak <none>
%%barnumbers 0
L: 1/8
M: 2/4
K: F clef=bass
[K:clef=bass][M:2/4]z2z C | 
D2DD | 
C2A,/G,C/ | 
C2CB, | 
B,/G,3/ F,F, | 
G,2B,B, | 
B,/G,3/ F,F,/ z// G,// | 
G,2F,/ z/ G, | 
F,4 | 
F,2F, z | 
B,B, B,A, | 
A,/G,3/ (3F,F,B, | 
G,2F, z/ B,/ | 
B,/G,3/ F,/ z/ F, | 
G,2F,/ z/ G, | 
F,4 |]  



